X:1
T:[ID 4-48vb]
T:[ID 4-48vb]
T:Bezeichnung standardisiert: Anglaise Angl. In dieser Quelle auch als: Angeloise \"Ahnlich in dieser Quelle: ID 8-40; ID 7-112;
T:Urheber unbekannt Erstbeleg: 1767 (Datum in der schriftlichen Quelle) Datum in der hier transkribierten schriftlichen Quelle: 1776 - 1791
C:Urheber unbekannt
C:Erstbeleg: 1767 (Datum in der schriftlichen Quelle)
C:Datum in der hier transkribierten schriftlichen Quelle: 1776 - 1791
L:1/8
M:2/4
K:G
V:1 treble 
V:1
 dBdB | (ec) c2 | cAcA | BG G2 | dBdB | ecec | BAGF | G2 G,2 :: DFAc | DFAc | cdcB | B2 A2 | dBdB | %13
 ecec | BAGF | G2 G,2 :| %16

